X:335
T:Old Bachelor. (p)1695.PLFD.335
M:6/4
L:1/4
Q:3/4=80
S:Playford, Dancing Master,9th Ed,1695.
O:England
H:1695.
Z:Chris Partington.
K:Bb
d|g>agf>ed|e3def|B>cde>dc|A3-A2A|
d>edc>BA|B>cdG2e|ed2d>ec|d3-d2:|
|:a|^f>=eda2d|g3-g2a|b>agf2e|d3-d>ef|
f>gf(dB)G|c>dc(AF)c|f>gfd>cB|B2fb2d|
e2ga>ba|^f>=edg2d|e>dcB>AG|G3-G2:|
